X:432
T:Madame Bonaparte
M:C|
L:1/8
K:G
dc|"G"B2 BG BdBG|"C"c2 {d}cB cecA|"G"GA (3Bcd gfge|"D"d2 de dcBA|"G"B2 BA BdBG|
"C"cBcd ef (3gfe|"G"dBGB "D"cAFD|"G"G2 {A}GF G2:||:(3DEF|"G"GA (3Bcd {ga}gfge|\
"D"d2 de dcBA|
"G"GA (3Bcd {ga}gfge|"D"(3ded ^ce d2 {e}d=c|"G"BdBG (3Bcd BG|\
"C"cecA cecA|"G"BdBG (3Bcd BG|
"D"FAFD FAFD|"G"BdBG BdBG|"C"{cd}cBcd ef (3gfe|"G"dBGB "D"cAFA|"G"G2 {A}GF G2:|
